assets/Barber pole/Flat/barber_pole_flat.svg

<svg width="32" height="32" viewBox="0 0 32 32" fill="none" xmlns="http://www.w3.org/2000/svg">
<path d="M19.61 8.16992H11.5V26.6799H19.61V8.16992Z" fill="#F4F4F4"/>
<path d="M19.61 5.95996L11.5 9.87997V12.0399L19.61 8.11996V5.95996ZM19.61 13.72L11.5 17.65V19.81L19.61 15.89V13.72ZM11.5 25.41L19.61 21.49V23.65L11.5 27.57V25.41Z" fill="#00A6ED"/>
<path d="M11.5 13.7599L19.61 9.83997V12L11.5 15.92V13.7599ZM11.5 21.5299L19.61 17.6099V19.7699L11.5 23.6899V21.5299Z" fill="#CA0B4A"/>
<path d="M11.44 4.83997H19.6C20.95 4.83997 22.04 5.92997 22.04 7.27997C22.04 8.62997 20.95 9.71997 19.6 9.71997H11.44C10.09 9.71997 9 8.62997 9 7.27997C9 5.92997 10.09 4.83997 11.44 4.83997ZM11.44 25.1399H19.6C20.95 25.1399 22.04 26.2299 22.04 27.5799C22.04 28.9299 20.95 30.0199 19.6 30.0199H11.44C10.09 30.0199 9 28.9299 9 27.5799C9 26.2299 10.09 25.1399 11.44 25.1399Z" fill="#9B9B9B"/>
<path d="M16.7401 2H14.2701C12.7101 2 11.4501 3.26001 11.4501 4.82001H19.5601C19.5601 3.27001 18.3001 2 16.7401 2Z" fill="#D3D3D3"/>
</svg>

<svg xmlns="http://www.w3.org/2000/svg" width="32" height="32" fill="none"><path fill="#F4F4F4" d="M19.61 8.17H11.5v18.51h8.11V8.17Z"/><path fill="#00A6ED" d="M19.61 5.96 11.5 9.88v2.16l8.11-3.92V5.96Zm0 7.76-8.11 3.93v2.16l8.11-3.92v-2.17ZM11.5 25.41l8.11-3.92v2.16l-8.11 3.92v-2.16Z"/><path fill="#CA0B4A" d="m11.5 13.76 8.11-3.92V12l-8.11 3.92v-2.16Zm0 7.77 8.11-3.92v2.16l-8.11 3.92v-2.16Z"/><path fill="#9B9B9B" d="M11.44 4.84h8.16c1.35 0 2.44 1.09 2.44 2.44 0 1.35-1.09 2.44-2.44 2.44h-8.16C10.09 9.72 9 8.63 9 7.28c0-1.35 1.09-2.44 2.44-2.44Zm0 20.3h8.16c1.35 0 2.44 1.09 2.44 2.44 0 1.35-1.09 2.44-2.44 2.44h-8.16c-1.35 0-2.44-1.09-2.44-2.44 0-1.35 1.09-2.44 2.44-2.44Z"/><path fill="#D3D3D3" d="M16.74 2h-2.47c-1.56 0-2.82 1.26-2.82 2.82h8.11C19.56 3.27 18.3 2 16.74 2Z"/></svg>
